icons/1_Primary/Phemex.svg

<svg width="1024" height="1024" viewBox="0 0 1024 1024" fill="none" xmlns="http://www.w3.org/2000/svg">
<g clip-path="url(#clip0_2_3123)">
<path d="M512 1024C794.77 1024 1024 794.77 1024 512C1024 229.23 794.77 0 512 0C229.23 0 0 229.23 0 512C0 794.77 229.23 1024 512 1024Z" fill="#9ABEFF"/>
<path d="M330.699 407.9V647.6C330.699 697.7 418.999 768 477.399 768V528.3C477.399 478.1 389.099 407.9 330.699 407.9ZM546.599 256V495.7C546.599 545.8 634.899 616.1 693.299 616.1V376.4C693.299 326.2 604.999 256 546.599 256Z" fill="white"/>
</g>
<defs>
<clipPath id="clip0_2_3123">
<rect width="1024" height="1024" fill="white"/>
</clipPath>
</defs>
</svg>

<svg width="1024" height="1024" fill="none" xmlns="http://www.w3.org/2000/svg"><g clip-path="url(#a)"><path d="M512 1024c282.77 0 512-229.23 512-512S794.77 0 512 0 0 229.23 0 512s229.23 512 512 512Z" fill="#9ABEFF"/><path d="M330.699 407.9v239.7c0 50.1 88.3 120.4 146.7 120.4V528.3c0-50.2-88.3-120.4-146.7-120.4Zm215.9-151.9v239.7c0 50.1 88.3 120.4 146.7 120.4V376.4c0-50.2-88.3-120.4-146.7-120.4Z" fill="#fff"/></g><defs><clipPath id="a"><path fill="#fff" d="M0 0h1024v1024H0z"/></clipPath></defs></svg>
